!! 00000] TT[WS
!!!OTL: Xiu hebao
!!!ARE: Asia, China,ÿShanxi Jushan
!! Ethnic Group: Han
!! WI, 110
!!!SCT: J0128
!!!YEM: Copyright 1995, estate of Helmut Schaffrath.
**kern
*ICvox
*Ivox
*M2/4
*k[b-]
*F:
{16a
8.cc
8a
8g
=1
16a
16g
8f
8d
8c
=2
4.cc
8ff
=3
8dd
8cc
8g
8a}
=4
{4cc
8g
8a
=5
8cc
8ff
8a
8g
=6
8f
8f
8f
8a
=7
2g}
=8
{8d
8f
8g
8g
=9
4cc
8.dd
16cc
=10
8cc
8a
8cc
8a
=11
16g
16a
16g
16f
8d
8c}
=12
{8cc
8ff
8.cc
16a
=13
8a
8g
8f
8d
=14
4.c
8d
=15
2c}
=16
{8.f
16g
8a
8cc
=17
16g
16a
16g
16f
8d
8c}
=18
{8cc
8ff
8.cc
16a
=19
8a
8g
8f
8d
=20
4.c
8d
=21
2c}
==
!!!AGN: Xiaodiao. Qingge
!!!ONB: ESAC (Essen Associative Code) Database: CHINA
!!!AMT: simple duple
!!!AIN: vox
!!!EED: Helmut Schaffrath
!!!EEV: 1.0
*-
